tools/panel_16/livewallpaper-indicator.svg

<svg xmlns="http://www.w3.org/2000/svg" width="16" height="16" version="1">
 <defs>
  <style id="current-color-scheme" type="text/css">
   .ColorScheme-Text { color:#d3dae3; } .ColorScheme-Highlight { color:#5294e2; }
  </style>
 </defs>
 <g>
  <path style="fill:currentColor" class="ColorScheme-Text" d="M 0.8008,1 C 0.3576,1 0,1.3624 0,1.8125 L 0,12.187 C 0,12.638 0.39735071,12.816547 0.8008,13 L 3,13 3,14.187 C 3,14.638 3.3723,15 3.834,15 l 8.332,0 C 12.628,15 13,14.638 13,14.187 L 13,13 15.199,13 C 15.642,13 16,12.638 16,12.187 L 16,1.8125 C 16,1.3624 15.642,1 15.199,1 Z M 1,2 15,2 15,12 1,12 Z M 7,3 C 6.4477153,3 6,3.4477153 6,4 6,4.5522847 6.4477153,5 7,5 7.5522847,5 8,4.5522847 8,4 8,3.4477153 7.5522847,3 7,3 Z m 5,0 c -1.104569,0 -2,0.8954305 -2,2 0,1.1045695 0.895431,2 2,2 1.104569,0 2,-0.8954305 2,-2 C 14,3.8954305 13.104569,3 12,3 Z M 3.5,6 C 2.6715729,6 2,6.6715729 2,7.5 2,8.3284271 2.6715729,9 3.5,9 4.3284271,9 5,8.3284271 5,7.5 5,6.6715729 4.3284271,6 3.5,6 Z m 8.965,2.4 C 12.202612,8.4184115 11.999355,8.6369679 12,8.9 c 0,0.2761424 0.223858,0.5 0.5,0.5 0.276142,0 0.5,-0.2238576 0.5,-0.5 0,-0.2761424 -0.223858,-0.5 -0.5,-0.5 -0.01166,-4.085e-4 -0.02334,-4.085e-4 -0.035,0 z M 9,9 c -0.5522847,0 -1,0.4477153 -1,1 0,0.552285 0.4477153,1 1,1 0.5522847,0 1,-0.447715 1,-1 C 10,9.4477153 9.5522847,9 9,9 Z"/>
 </g>
</svg>

<svg xmlns="http://www.w3.org/2000/svg" width="16" height="16" version="1">
 <defs>
  <style id="current-color-scheme" type="text/css">
   .ColorScheme-Text { color:#d3dae3; } .ColorScheme-Highlight { color:#5294e2; }
  </style>
 </defs>
 <path style="fill:currentColor" class="ColorScheme-Text" d="M 0.8008,1 C 0.3576,1 0,1.3624 0,1.8125 V 12.187 C 0,12.638 0.39735,12.817 0.8008,13 H 3 V 14.187 C 3,14.638 3.3723,15 3.834,15 H 12.166 C 12.628,15 13,14.638 13,14.187 V 13 H 15.199 C 15.642,13 16,12.638 16,12.187 V 1.8125 C 16,1.3624 15.642,1 15.199,1 Z M 1,2 H 15 V 12 H 1 Z M 7,3 C 6.4477,3 6,3.4477 6,4 6,4.5523 6.4477,5 7,5 7.5523,5 8,4.5523 8,4 8,3.4477 7.5523,3 7,3 Z M 12,3 C 10.895,3 10,3.8954 10,5 10,6.1046 10.895,7 12,7 13.105,7 14,6.1046 14,5 14,3.8954 13.105,3 12,3 Z M 3.5,6 C 2.6716,6 2,6.6716 2,7.5 2,8.3284 2.6716,9 3.5,9 4.3284,9 5,8.3284 5,7.5 5,6.6716 4.3284,6 3.5,6 Z M 12.465,8.4 C 12.203,8.4184 11.999,8.637 12,8.9 12,9.1761 12.224,9.4 12.5,9.4 12.776,9.4 13,9.1761 13,8.9 13,8.6239 12.776,8.4 12.5,8.4 12.488,8.3996 12.477,8.3996 12.465,8.4 Z M 9,9 C 8.4477,9 8,9.4477 8,10 8,10.552 8.4477,11 9,11 9.5523,11 10,10.552 10,10 10,9.4477 9.5523,9 9,9 Z"/>
</svg>
